!!!COM: Anon.
!!!OTL: Estando eu bordando
!!!OTL: Romanceiro Folclorico do Brasil
!!!CNT: Brasil
!!!OCY: Brasil
!!!ODT: <1971///
!!!PSR: Irmaos Vitale
!!!PSP: Sao Paulo, Brasil
!!!PDT: 1954///
!!!PPE: Rossini Tavares de Lima
!!!PPG: pages 43-44
!! Romance: Santa Helena Ou Iria
!! Place: Corumba, Mato Grosso, Brasil
**kern
*clefG2
*k[b-e-a-]
*M3/4
*MM100
4g
=
2g
4c
=
2a-
4g
=
4g
[2f
=
2.f]
=
2f
4f
=
2g
4f
=
4f
[2e-
=
2.e-]
=
2c
4e-
=
2g
4cc
=
2.cc
=
2.a-
=
2dd
4cc
=
2bn
4dd
=
4cc
[2g
=
2.g]
=
2dd
4bn
=
2g
4f
=
4f
[2e-
=
2.e-]
=
2a-
4g
=
2f
4e-
=
4d
[2c
=
2c]
==
*-
